shader simpletST
(
    float s = 0 [[int lockgeom=0]],
    float t = 0 [[int lockgeom=0]],
	float uvRepeat = 1,
    output color resultRGB = color (0)
)

{
	float ss = mod(s*uvRepeat, 1);
 	float tt = mod(t*uvRepeat, 1);
    resultRGB = color(ss, tt, 0);
}
